svgs/duotone/signal-weak.svg

<svg xmlns="http://www.w3.org/2000/svg" viewBox="0 0 640 512"><!--! Font Awesome Pro 6.6.0 by @fontawesome - https://fontawesome.com License - https://fontawesome.com/license (Commercial License) Copyright 2024 Fonticons, Inc. --><defs><style>.fa-secondary{opacity:.4}</style></defs><path class="fa-secondary" d="M160 320l0 160c0 17.7 14.3 32 32 32s32-14.3 32-32l0-160c0-17.7-14.3-32-32-32s-32 14.3-32 32zm128-96l0 256c0 17.7 14.3 32 32 32s32-14.3 32-32l0-256c0-17.7-14.3-32-32-32s-32 14.3-32 32zm128-96l0 352c0 17.7 14.3 32 32 32s32-14.3 32-32l0-352c0-17.7-14.3-32-32-32s-32 14.3-32 32zM544 32l0 448c0 17.7 14.3 32 32 32s32-14.3 32-32l0-448c0-17.7-14.3-32-32-32s-32 14.3-32 32z"/><path class="fa-primary" d="M64 384c17.7 0 32 14.3 32 32l0 64c0 17.7-14.3 32-32 32s-32-14.3-32-32l0-64c0-17.7 14.3-32 32-32z"/></svg>

<svg xmlns="http://www.w3.org/2000/svg" viewBox="0 0 640 512"><!--! Font Awesome Pro 6.5.2 by @fontawesome - https://fontawesome.com License - https://fontawesome.com/license (Commercial License) Copyright 2024 Fonticons, Inc. --><defs><style>.fa-secondary{opacity:.4}</style></defs><path class="fa-secondary" d="M608 32c0-17.7-14.3-32-32-32s-32 14.3-32 32V480c0 17.7 14.3 32 32 32s32-14.3 32-32V32zM480 128c0-17.7-14.3-32-32-32s-32 14.3-32 32V480c0 17.7 14.3 32 32 32s32-14.3 32-32V128zM320 192c-17.7 0-32 14.3-32 32V480c0 17.7 14.3 32 32 32s32-14.3 32-32V224c0-17.7-14.3-32-32-32zM224 320c0-17.7-14.3-32-32-32s-32 14.3-32 32V480c0 17.7 14.3 32 32 32s32-14.3 32-32V320z"/><path class="fa-primary" d="M64 384c17.7 0 32 14.3 32 32v64c0 17.7-14.3 32-32 32s-32-14.3-32-32V416c0-17.7 14.3-32 32-32z"/></svg>
